!!!!SEGMENT: pl-wtm--iii-40-841--001-003_tarnowski-adam--trzy-spiewki-z-obrazka-wiejskiego-janek-z-pod-ojcowa-no-3-mazur.krn
!!!cenid: 18xx:4353
!!!COM: Tarnowski, Adam
!!!COM-rismID: pe50042388
!!!CDT: 1816-1890/05/01
!!!CNT: Polish
!!!GTL: Trzy śpiewki z obrazka wiejskiego „Janek z pod Ojcowa”
!!!OTL: No. 3 Mazur
!!!OMV: 003
!!!PDT:
!!!AGN: Secular
!!!SMS-siglum: PL-Wtm
!!!SMS-shelfmark: III.40.841
!!!SMS-shelfwork: 001-003 G
!!!SMS-variant:
!!!SMS-altvar:
!!!NIFC-rismSourceID: 1001153056
!!!NIFC-rismChildID: 1001153059
!!!NIFC-islandoraID: pl-wtm:13529
!!!URL-pdf-islandora: https://repozytorium.nifc.pl/islandora/object/pl-wtm:13529/datastream/PDF/view
!!!URL-scan: https://polish.musicsources.pl/pl/lokalizacje/galeria/druki-muzyczne/16657/4 @EN{Scan on Polish Music Sources Website} @PL{Skany w portalu Dziedzictwo Muzyki Polskiej w otwartym dostępie}
!!!ONB-nifc:
!!!AIN: 1 piano 1 vox
!!!key:
**kern	**kern	**dynam	**kern	**text
*part2	*part2	*part2	*part1	*part1
*staff3	*staff2	*	*staff1	*staff1
*	*I"PIANO	*	*I"SPIEW	*
*	*I'pf	*	*I'V	*
*	*Ipiano	*	*Ivox	*
*	*ICklav	*	*ICvox	*
*	*IGacmp	*	*IGsolo	*
*clefF4	*clefG2	*	*clefG2	*
*k[b-]	*k[b-]	*	*k[b-]	*
*F:	*F:	*	*F:	*
*M3/4	*M3/4	*	*M3/4	*
*>[A,B,B]	*>[A,B,B]	*	*>[A,B,B]	*
=1	=1	=1	=1	=1
*>A	*>A	*	*>A	*
!	!	!	!LO:TX:a:t=MAZUR	!
8FF\L 8F	8a/L 8cc 8ff	f	2.r	.
16r	16r	.	.	.
16FF\Jk 16F	16A</Jk 16c 16f	.	.	.
4FF\ 4F	4A</ 4c 4f	.	.	.
4FF\ 4F	4A</ 4c 4f	.	.	.
=2	=2	=2	=2	=2
4FF\ 4F	4A</ 4c 4f	.	2.r	.
4CC\ 4C	4A</ 4c 4f	.	.	.
4AAA\ 4AA	4A</ 4c 4f	.	.	.
=3||	=3||	=3||	=3||	=3||
*>B	*>B	*	*>B	*
*^	*	*	*	*
!LO:TX:t=[segno]	!	!LO:TX:t=[segno]	!	!LO:TX:t=[segno]	!
4FF/	4AAA\	4r	p	8cc/	Niech
.	.	.	.	8cc/	kto
4r	2ryy	4Bn</ 4d 4f 4g#X	.	4bn/	chce
4r	.	4B</ 4d 4f 4g#	.	4dd/	chwa-
*v	*v	*	*	*	*
!!LO:LB:g=original
=4	=4	=4	=4	=4
4FF/ 4F	4r	.	4.cc/	-li
4r	4c/ 4f 4a	.	.	.
.	.	.	8c/	War-
4r	4c/ 4f 4a	.	8f/	-sza-
.	.	.	8a/	-we
=5	=5	=5	=5	=5
4FF/ 4F	4r	.	8.cc/	J
.	.	.	16cc/	jéj
4r	4Bn</ 4d 4f 4g#X	.	4bn/	krzy-
4r	4B</ 4d 4f 4g#	.	4dd/	-ki
=6	=6	=6	=6	=6
4FF/ 4F	4r	.	4.cc/	i
4r	4c/ 4f 4a	.	.	.
.	.	.	8cc/	jéj
4r	4c/ 4f 4a	.	8bn/	wrza-
.	.	.	8cc/	-wę
=7	=7	=7	=7	=7
2C/	4r	.	8.dd/	Ja
.	.	.	16cc/	nad
.	4c</ 4e 4gn 4b-	.	4b-/	miéj-
4r	4c</ 4e 4g 4b-	.	4b-/	-skie
!!LO:LB:g=original
=8	=8	=8	=8	=8
2FF\ 2F	4r	.	4.a/	Szwar-
.	4c/ 4f 4a	.	.	.
.	.	.	8g/	-go-
4r	4c/ 4f 4a	.	8a/	-ta-
.	.	.	8b-/	-nie
=9	=9	=9	=9	=9
2CC/ 2C	4r	.	8cc/	Wo-
.	.	.	8cc/	-le
.	4c</ 4e 4g 4b-	.	4dd\	pro-
4r	4c</ 4e 4g 4b-	.	4e/	-ste
=10	=10	=10	=10	=10
2FF/ 2F	4r	.	4.f/	za-
.	4c/ 4f 4a	.	.	.
.	.	.	8ff\	-spie-
4r	4c/ 4f 4a	.	8ee\	-wa-
.	.	.	8dd\	-nie
=11	=11	=11	=11	=11
2C/	4r	.	8dd/	Ja
.	.	.	8cc/	nad
.	4c</ 4e 4g 4b-	.	4b-/	miej-
4ryy	4c</ 4e 4g 4b-	.	4b-/	-skie
!!LO:LB:g=original
=12	=12	=12	=12	=12
2FF\ 2F	4r	.	4.a/	szwar-
.	4c/ 4f 4a	.	.	.
.	.	.	8g/	-go-
4r	4c/ 4f 4a	.	8a/	-ta-
.	.	.	8b-/	-nie
=13	=13	=13	=13	=13
2C\	4r	.	8cc/	Wo-
.	.	.	8cc/	-le
.	4B-</ 4c 4e	.	4dd/	pro-
4r	4B-</ 4c 4e 4g	.	4e/	-ste
=14	=14	=14	=14	=14
4F\ 4c>	8f/L	.	8f/	za-
.	8a/J	.	8a/	-spie-
4ryy	4B-</ 4e 4g	.	4g/	-wa-
8F\	8A</ 8f	.	8f/	-nie.
8r	8r	.	8r	.
=15	=15	=15	=15	=15
4CC/ 4C	8.gg\L	f	2.r	.
.	16bb-\Jk	.	.	.
4C/ 4G 4B-	4ddd\	.	.	.
!	!LO:TUP:a	!	!	!
4C/ 4G 4B-	(12bb-\L	.	.	.
.	12gg\	.	.	.
.	12ee\J)	.	.	.
=16	=16	=16	=16	=16
!	!	!	!LO:TX:t=[segno]	!
8F\ 8A	8ff\	.	2.r	.
8r	8r	.	.	.
4F\ 4A	4f^\ 4a 4cc 4ff	.	.	.
!LO:TX:t=[segno]	!LO:TX:t=[segno]	!	!	!
4r	4r	.	.	.
==	==	==	==	==
*-	*-	*-	*-	*-
!!!system-decoration: s1{(s2,s3)}
!!!RDF**kern: < = below
!!!RDF**kern: > = above
!!!ENC: Filip Voros
!!!END: 2023-07-10
!!!ENC: Marta Chmielewska
!!!END: 2023-07-13
!!!YEC: Copyright 2022 Narodowy Instytut Fryderyka Chopina (https://polishscores.org)
!!!YEM: License CC-BY-4.0 (https://creativecommons.org/licenses/by/4.0)
